!!!COM: Claude Debussy
!!!CNT: Francais
!!!TXO: Francais
!!!OTL: Romance
!!!LYR: Paul Bourget
!!!ENC: Jacob Pegg
!!!YOR: Claude Debussy: Songs 1880-1904, Edited by Rita Benton
!!!YOR: New York: Dover publications, inc., 1981
!!!YOR: ISBN 0-486-24131-9
!!!ODT: 1883/
!!NB: Vocal melody and text only encoded.
!!NB: First instance of melodic material only encoded.
**kern	**silbe
*clef G2	*
*k[f#c#]	*
*M4/4	*
*MM[moderato]	*
!! created: 7/1/03 21:21
!! last edited: 7/10/03 14:56
!! time (min) : input notes 6, words 4.  check : notes 3, words 3.
!! total edit time: about 17 min.
=1	=1
2r	.
2r	.
=2	=2
1r	.
=3	=3
{8e	{L'a^-
8e	-me e/-
8e	-va-
8e	-po-
[4g	-re/e
8g]	et
8g	souf-
=4	=4
[2b	-fran-
8b]}	-te,}
8r	.
{8b	{L'a^-
8b	-me
=5	=5
(4ee	dou-
8b)}	-ce,}
8r	.
8r	.
{8b	{l'a^-
8a#	-me o-
8f#	-do-
=6	=6
4dd	-ran-
8cc#}	-te}
{8dd	{Des
8cc#	lis
8b	di-
[4f#	-vins
=7	=7
8f#]	|
8b	que
8dd	j'ai
8ff#	cueil-
4ff#}	-lis}
{4dd	{Dans
=8	=8
8cc#	le
8dd	jar-
4b}	-din}
8r	.
{8f#	{de
8e	ta
8d	pen-
=9	=9
1g#}	-se/e,}
=10	=10
8r	.
{8gn	{Ou\
8gn	donc
8gn	les
8b	vents
8b	l'ont~
8g	~ils
8e	chas-
=11	=11
2.g}	-se/e,}
{4g	{Cette
=12	=12
4g	a^me
8f#	a-
8a	-do-
4ccn	-ra-
8ee	-ble
8ccn	des
=13	=13
2.a}	lis?}
4r	.
=14	=14
4r	.
{4f#	{N'est~
8f#	~il
8f#	plus
8f#	un
8f#	par-
=15	=15
8a	-fum
8a	qui
(2b	res-
4f#)}	-te}
=16	=16
8r	.
{8f#	{De
8a	la
8b	su-
8cc#	-a-
8dd#	-vi-
8ff#	-te/
8dd#	ce/-
=17	=17
2cc#	-les-
4b}	-te}
{4b	{Des
=18	=18
4.ee	jours
8dd#	ou\
8cc#	tu
8b	m'en-
8g#	-ve-
8f#	-lop-
=19	=19
4f#}	-pais}
{4e	{D'u-
4f#	-ne
4g#	va-
=20	=20
4b	-peur
4cc#	sur-
4dd	-na-
4ee	-tu-
=21	=21
2b	-rel-
4b}	-le}
4r	.
=22	=22
{4ff#	{Fai-
8ee	-te
8ff#	d'es-
4ddn}	-poir,}
4r	.
=23	=23
8r	.
{8b	{d'a-
8a	-mour
8b	fi-
[4g	-de\-
8g]}	-le}
8r	.
=24	=24
2r	.
{8g	{De
8g	be/-
8a	-a-
8b	-ti-
=25	=25
*M2/4	*
[2dd	-tude
=26	=26
*M4/4	*
2dd]	|
4dd	et
4cc#	de
=27	=27
2a}	paix?}
2r	.
*-	*-
